public/img/ascending.svg

<svg width="24" height="24" viewBox="0 0 24 24" fill="none" xmlns="http://www.w3.org/2000/svg">
<path fill-rule="evenodd" clip-rule="evenodd" d="M12.0809 7.28641L12.4345 6.93286L12.788 7.28641L17 11.4984L16.2929 12.2055L12.9345 8.84707V16.9999H11.9345V8.84707L8.57605 12.2055L7.86895 11.4984L12.0809 7.28641Z" fill="black"/>
</svg>

<svg xmlns="http://www.w3.org/2000/svg" width="24" height="24" fill="none" viewBox="0 0 24 24">
  <path stroke="#000" stroke-width="2" fill-rule="evenodd" d="M12.08 7.286l.354-.353.354.353L17 11.498l-.707.708-3.358-3.359V17h-1V8.847l-3.359 3.359-.707-.708 4.212-4.212z" clip-rule="evenodd"/>
</svg>
